X:90
T: Green-Gowned Lass
S: "Play 50 Reels" (Armagh Pipers' Club)
Z: B.Black
L: 1/8
M: 4/4
R: reel
K: G
d2 BG DGBG | AGBd BE E2 | d2 BG DGBG | (3Bcd ea agge |
d2 BG DGBG | AGBd BE E2 | d2 BG DGBG | (3Bcd ea agef ||
g2 bg ageg | agab agef | g2 bg agbg | dega bggd |
gabg ageg | a2 ab agef | gabg efge | dega bg g2 ||
